!!!!SEGMENT: pl-wnifc--1816-n--001_lipski-stanislaw--12-piesni-op-9-cien-chopina.krn
!!!cenid: 18xx:3876
!!!COM: Lipski, Stanisław
!!!COM-rismID: pe50044081
!!!CDT: 1880-1937
!!!CNT: Polish
!!!GTL: 12 pieśni op. 9
!!!OTL: Cień Chopina
!!!PDT:
!!!AGN:
!!!SMS-siglum: PL-Wnifc
!!!SMS-shelfmark: 1816/n
!!!SMS-shelfwork: 001 G
!!!SMS-variant:
!!!SMS-altvar:
!!!NIFC-rismSourceID: 1001156167
!!!NIFC-rismChildID: 1001156169
!!!NIFC-islandoraID: nifc:211804
!!!URL-pdf-islandora: https://repozytorium.nifc.pl/islandora/object/nifc%3A211804/datastream/PDF/view
!!!URL-scan: https://polish.musicsources.pl/pl/lokalizacje/galeria/druki-muzyczne/16804 @EN{Scan on Polish Music Sources Website} @PL{Skany w portalu Dziedzictwo Muzyki Polskiej w otwartym dostępie}
!!!ONB-nifc:
!!!AIN: 1 piano 1 soprn
!!!key: G
**kern	**kern	**fing	**dynam	**kern	**text	**text	**dynam
*part2	*part2	*part2	*part2	*part1	*part1	*part1	*part1
*staff3	*staff2	*	*	*staff1	*staff1	*staff1	*
*I"PIANO.	*I"PIANO.	*	*	*I"CANTO.	*	*	*
*I'pf	*I'pf	*	*	*I'S	*	*	*
*ICklav	*ICklav	*	*	*ICvox	*	*	*
*Ipiano	*Ipiano	*	*	*Isoprn	*	*	*
*clefF4	*clefG2	*	*	*clefG2	*	*	*
*k[f#]	*k[f#]	*	*	*k[f#]	*	*	*
*G:	*G:	*	*	*G:	*	*	*
*M6/8	*M6/8	*	*	*M6/8	*	*	*
=1	=1	=1	=1	=1	=1	=1	=1
*	*^	*	*	*	*	*	*
*	*	*Xtuplet	*	*	*	*	*	*
!	!LO:TUP:a:problem:klamra łukowa i cyfra	!	!	!	!LO:TX:a:B:t=Andante pastorale.	!	!	!
4.GG/ 4.D	24g/LL	24ryy\	.	.	2.r	.	.	.
!	!	!LO:TX:t=P:problem: błąd wyświetlania VHV	!	!	!	!	!	!
!	!	!LO:N:vis=8	!	!	!	!	!	!
.	24d/	NN[24d\	.	.	.	.	.	.
.	24g/JJ	24ryy	.	.	.	.	.	.
.	4a/	4d\NN]	.	.	.	.	.	.
*	*Xtuplet	*	*	*	*	*	*	*
4.GG/ 4.D	24g/LL	[8d\	.	.	.	.	.	.
.	24d/	.	.	.	.	.	.	.
.	24g/JJ	.	.	.	.	.	.	.
.	4a/	4d\]	.	.	.	.	.	.
*	*	*tuplet	*	*	*	*	*	*
=2	=2	=2	=2	=2	=2	=2	=2	=2
*	*Xtuplet	*Xtuplet	*	*	*	*	*	*
4.GG/ 4.D	24g/LL	24ryy\	.	.	2.r	.	.	.
!	!	!LO:TX:t=P:problem: błąd wyświetlania VHV	!	!	!	!	!	!
!	!	!LO:N:vis=8	!	!	!	!	!	!
.	24d/	NN[24d\	.	.	.	.	.	.
.	24g/JJ	24ryy	.	.	.	.	.	.
.	8a/L	4d\NN]	.	.	.	.	.	.
.	8dd/J	.	.	.	.	.	.	.
.	(8qee/	.	.	.	.	.	.	.
4.GG/ 4.D	4.ddT/)	4.a\	.	.	.	.	.	.
*	*	*tuplet	*	*	*	*	*	*
=3	=3	=3	=3	=3	=3	=3	=3	=3
*	*	*Xtuplet	*	*	*	*	*	*
!	!LO:TUP:a:problem:klamra łukowa i cyfra	!	!	!	!	!	!	!
4.GG/ 4.D	24g/LL	24ryy\	.	.	2.r	.	.	.
!	!	!LO:TX:t=P:problem: błąd wyświetlania VHV	!	!	!	!	!	!
!	!	!LO:N:vis=8	!	!	!	!	!	!
.	24d/	NN[24d\	.	.	.	.	.	.
.	24g/JJ	24ryy	.	.	.	.	.	.
.	4a/	4d\NN]	.	.	.	.	.	.
*	*Xtuplet	*	*	*	*	*	*	*
4.GG/ 4.D	24g/LL	[8d\	.	.	.	.	.	.
.	24d/	.	.	.	.	.	.	.
.	24g/JJ	.	.	.	.	.	.	.
.	4a/	4d\]	.	.	.	.	.	.
*	*	*tuplet	*	*	*	*	*	*
=4	=4	=4	=4	=4	=4	=4	=4	=4
*	*	*	*	*	*^	*	*	*
*	*Xtuplet	*Xtuplet	*	*	*	*cue	*	*	*
4.GG/ 4.D	24g/LL	24ryy\	.	.	2.r	4r	.	.	.
!	!	!LO:TX:t=P:problem: błąd wyświetlania VHV	!	!	!	!	!	!	!
!	!	!LO:N:vis=8	!	!	!	!	!	!	!
.	24d/	NN[24d\	.	.	.	.	.	.	.
.	24g/JJ	24ryy	.	.	.	.	.	.	.
.	8a/L	4d\NN]	.	.	.	.	.	.	.
.	8dd/J	.	.	.	.	8r	.	.	.
.	(8qee/	.	.	.	.	.	.	.	.
4.GG/ 4.D	4.ddT/)	4.a\	.	.	.	4r	.	.	.
.	.	.	.	.	.	8d\	Auf	.	.
!!LO:LB:g=original	!	!	!	!	!	!	!	!
=5	=5	=5	=5	=5	=5	=5	=5	=5	=5
*	*	*^	*	*	*	*	*	*	*
4.GG/ 4.D	8g/L	4.B\	4ryy	.	p	8d/	8d\L	Na	Dor-	.
.	8d/	.	.	.	.	8.g/	8.g\J	wiej-	.	.
.	8g/J	.	8ryy	.	.	.	.	.	.	.
.	.	.	.	.	.	16e/	4ryy	-skie	fes	.
4.GG/ 4.D	4.a/	4.c\	4e/	.	.	(8.f#/L	.	ga-	wie-	.
.	.	.	.	.	.	16e/Jk)	16ryy	.	.	.
.	.	.	8f#/	.	.	8d/	8ryy	-je,	-sen,	.
*	*	*v	*v	*	*	*	*	*	*	*
*	*	*	*	*	*v	*v	*	*	*
=6	=6	=6	=6	=6	=6	=6	=6	=6
[4.GG/ [4.D	8b/L	(4.e\	.	.	8d/	na	auf	.
.	8g/	.	.	.	8.g/	kwie-	Blü-	.
.	8b/J	.	.	.	.	.	.	.
.	.	.	.	.	16e/	-tne	-ten-	.
4.GG/] 4.D]	4.cc/	(8e\L)	.	.	(8f#/	sa-	-mat-	.
.	.	8f#\	.	.	8e/)	-dy,	-ten,	.
.	.	8a\J)	.	.	8f#/	Na	Der	.
=7	=7	=7	=7	=7	=7	=7	=7	=7
[4.GG/ [4.D	4dd/	8b\L	.	.	(8d/L	po-	Fel-	.
.	.	8g\	.	.	8g/J)	.	.	.
.	8gg/	8ee\J	.	.	8b\	-la	-der	.
8GG/] 8D]	(4ff#/	(4dd\	.	.	[4.dd\	hen,	Saum	.
4GG/ 4D	.	.	.	.	.	.	.	.
.	8ee/)	8cc\)	.	.	.	.	.	.
=8	=8	=8	=8	=8	=8	=8	=8	=8
[4.GG/ [4.D	(8dd/L	4.b\	.	pp	4.dd\]	.	.	.
.	8gg/	.	.	.	.	.	.	.
.	8bb/J)	.	.	.	.	.	.	.
4GG/] 4D]	4gg:/ 4bb: 4ddd:	4dd:\	.	.	4r	.	.	.
8D\	8ryy	8d/	.	.	8r	.	.	.
=9	=9	=9	=9	=9	=9	=9	=9	=9
*^	*	*	*	*	*^	*	*	*
4.D/	4.GG/	8d/L	4.B\	.	.	8.d/	8.d\L	I-	Wan-	.
.	.	8g/	.	.	.	.	.	.	.	.
.	.	.	.	.	.	16g/	16g\Jk	-dzie	.	.
.	.	8e/J	.	.	.	8e/	8ryy	no-	-delt	.
4E/	4.GG\	4.c/ 4.a	4e\	.	.	(8f#/L	4ryy	-c a-	nachts	.
.	.	.	.	.	.	8e/J)	.	.	.	.
8F#/	.	.	8f#\	.	.	8d/	8ryy	-mi	sein	.
*v	*v	*	*	*	*	*	*	*	*	*
!!LO:LB:g=original	!	!	!	!	!	!	!	!
=10	=10	=10	=10	=10	=10	=10	=10	=10	=10
4.GG/ 4.D 4.G	8b/L	4.B\ 4.g	.	.	8d/	8d\L	cień	blei-	.
.	8g/	.	.	.	8b/	8b\J	je-	.	.
.	8d/J	.	.	.	8g/	2ryy	-go	-cher	.
4.GG\ 4.D 4.A	4.c\ 4.cc	4e/	.	.	(8.f#/L	.	bla-	Schat-	.
.	.	.	.	.	16e/Jk)	.	.	.	.
.	.	8f#/	.	.	8d/	.	-dy.	-ten,	.
*	*	*	*	*	*v	*v	*	*	*
=11	=11	=11	=11	=11	=11	=11	=11	=11
[4.GG/ [<4.D	8b/L	4.g\	.	.	8d/	Ci-	Still	.
.	8dd/	.	.	.	8g/	-chy,	wie	.
.	8gg/J	.	.	.	8b\	jak	ein	.
4.GG\] 4.D] 4.A#X	4ff#/	4.f#\ 4.a#X 4.dd	.	.	[4.dd\	sen.	Traum.	.
.	8ee/	.	.	.	.	.	.	.
*clefG2	*	*	*	*	*	*	*	*
=12	=12	=12	=12	=12	=12	=12	=12	=12
*^	*	*	*	*	*	*	*	*
(4.a#X/	4.d\ 4.e 4.g	8dd/L	[4.dd\	.	.	4.dd\]	.	.	.
.	.	NN[<8ff#/	.	.	.	.	.	.	.
.	.	[<8aa#X/J	.	.	.	.	.	.	.
4cc:/)	4.d:\ 4.e: 4.g: 4.a#:	4.ff#~/NN] 4.aa#] 4.ddd	4.dd\]	.	.	4r	.	.	.
*clefF4	*	*	*	*	*	*	*	*	*
[8D/	.	.	.	.	.	8r	.	.	.
=13	=13	=13	=13	=13	=13	=13	=13	=13	=13
!	!	!LO:TX:b:i:t=murmurando	!	!	!	!	!	!	!
16D/KL]	4.GG\	8b/L 8dd	4.d\	.	p	8dd\	Słu-	Lau-	.
8D/	.	.	.	.	.	.	.	.	.
.	.	8a/ 8cc	.	.	.	8cc\	-cha,	-schet	.
8D/	.	.	.	.	.	.	.	.	.
.	.	8g/J 8b	.	.	.	8b\	jak	am	.
[16D/Jk	.	.	.	.	.	.	.	.	.
16D/KL]	4.GG\ 4.c	4f#/ 4a	16d#X\LL	.	.	8a/	szu-	Flus-	.
8D/	.	.	16e\	.	.	.	.	.	.
.	.	.	16c#X\	.	.	8cc\	-mią	-se	.
8D/	.	.	[16dn\	.	.	.	.	.	.
.	.	[8cc/ [8ee	16d\]	.	.	16r	.	.	.
[16D/Jk	.	.	(16f#\JJ	.	.	16ee\	nad	der	.
!!LO:PB:g=original	!	!	!	!	!	!	!	!
=14	=14	=14	=14	=14	=14	=14	=14	=14	=14
*	*	*	*^	*	*	*^	*	*	*
16D/KL]	[4.GG\	8ee/L]	16g\LL)	4cc/]	.	.	(8ee\L	4.ryy	rze-	Wäl-	.
8D/	.	.	16a#X\	.	.	.	.	.	.	.	.
.	.	8b/ 8dd	16b\	.	.	.	8dd\J)	.	.	.	.
8D/	.	.	16g\	.	.	.	.	.	.	.	.
.	.	8cc/J	NN[>16f#\	8an/	.	.	8cc\	.	-ką	-der	.
[16D/Jk	.	.	16e\JJ	.	.	.	.	.	.	.	.
16D/KL]	4GG\]	4b/	4d\	8f#/LNN]	.	.	(8b/	4b\	la-	Rau-	.
8D/	.	.	.	.	.	.	.	.	.	.	.
.	.	.	.	8g/	.	.	8g/)	.	-sy	-schen	.
16D/L	.	.	.	.	.	.	.	.	.	.	.
!	!	!	!	!LO:TX:t=P:problem:bracketed notes:8b/ 8d/J 8B\	!	!	!	!	!	!	!
16E/	[8GG\	8b/	8B\	8d/J	.	.	16ree	8ryy	.	.	.
.	.	.	.	.	.	.	8qqg\	.	.	.	.
(16D/JJ	.	.	.	.	.	.	16g/	.	O	.	.
*	*	*	*	*	*	*	*v	*v	*	*	*
=15	=15	=15	=15	=15	=15	=15	=15	=15	=15	=15
!	!	!LO:TX:a:i:t=poco rall.	!	!	!	!	!LO:TX:a:i:t=poco rall.	!	!	!
8C/L)	16GG\LL]	8e/L	8G\L 8c	2.r	.	.	(8e/L	wi-	Ne-	.
.	16CC\	.	.	.	.	.	.	.	.	.
16BB/L	16BBB\	8g/	[16G\L 16d	.	.	.	8g/J)	.	-bel	.
16BB-X/J	16BBB-X\	.	16G\_ [16c#X	.	.	.	.	.	.	.
8AA/J	16AAA\	16a/L	16G\] 16c#]	.	.	.	8a/	-te	um-	.
.	16DD\JJ	16dn/JJ	16F#\JJ 16c#	.	.	.	.	.	.	.
!	!	!LO:TX:b:i:t=a tempo	!	!	!	!	!LO:TX:a:i:t=a tempo	!	!	!
*ped	*	*	*	*	*	*	*	*	*	*
4.D/yy	4.D/ 4.GGG/ 4.GG	(<16G/LL 16e 16b	4ryy	.	.	<	4.b\	wmgły;	-hüllt,	.
.	.	16c#/	.	.	.	.	.	.	.	.
.	.	16d/	.	.	.	.	.	.	.	.
.	.	16g/	.	.	.	.	.	.	.	.
.	.	16b/	8ryy	.	.	.	.	.	.	.
.	.	16dd/JJ)	.	.	.	.	.	.	.	.
*v	*v	*	*	*	*	*	*	*	*	*
*	*	*v	*v	*	*	*	*	*	*
=16	=16	=16	=16	=16	=16	=16	=16	=16
*	*	*tuplet	*	*	*	*	*	*
!	!	!LO:TX:t=P:problem: błąd wyświetlania VHV	!	!	!	!	!	!
4ryy	8ee/L	[16%2cn\L 16%2g 16%2b	.	[	4r	.	.	.
.	8gg/	N<16%2c\J] 16%2f# 16%2a	.	.	.	.	.	.
8ryy	8aa/J	8r	.	.	8r	.	.	.
8B\LN) 8d#X 8g	4bb/yy	4b/ 4dd#X 4bb/	.	.	8r	.	.	.
8A\ 8d# 8f#	.	.	.	.	8.r	.	.	.
8D\J 8A 8dn	8f#:/ 8ccn: 8ddn: 8aa:	8ryy	.	.	.	.	.	.
.	.	.	.	.	16dd\	Jak	Der	.
=17	=17	=17	=17	=17	=17	=17	=17	=17
4GG/ 4D	8dd/L	16b\LL	.	.	(8dd\L	brzę-	Gei-	.
.	.	16d\	.	.	.	.	.	.
.	8cc/	16a\	.	.	8cc\J)	.	.	.
.	.	16d\	.	.	.	.	.	.
8GG/ 8D	8b/J	16g\	.	.	8b\	-czą	-gen	.
.	.	16d\JJ	.	.	.	.	.	.
4GG/ 4D	4f#/ 4a	16e\LL	.	.	8a/	skrzyp-	Klin-	.
.	.	16d\	.	.	.	.	.	.
.	.	16c#X\	.	.	8cc\	-ce,	-gen,	.
.	.	16d\	.	.	.	.	.	.
8GG/ [8D	8ryy	16cn\	.	.	16r	.	.	.
.	.	16d\JJ	.	.	16ee\	jak	der	.
!!LO:LB:g=original	!	!	!	!	!	!	!
=18	=18	=18	=18	=18	=18	=18	=18	=18
*^	*	*	*	*	*	*	*	*
16D/KL]	4.GG\	8g/L 8b	16d\LL	.	.	(8dd\L	hu-	Bäs-	.
8D/	.	.	[16b\	.	.	.	.	.	.
.	.	8gg/	16b\]	.	.	8b\J)	.	.	.
8D/	.	.	16d\	.	.	.	.	.	.
.	.	8b/J	16g\	.	.	8g/	-czą	-se	.
(16D/Jk	.	.	16e\JJ	.	.	.	.	.	.
16D/KL)	[4.GG\	4.c/ [4.a	8c\Lyy	.	.	8f#/	ba-	Sau-	.
8D/	.	.	.	.	.	.	.	.	.
.	.	.	8f#\	.	.	8e/	-sy	-sen	.
8D/	.	.	.	.	.	.	.	.	.
.	.	.	(8e\J	.	.	8e/	Z od-	Die	.
16D/Jk	.	.	.	.	.	.	.	.	.
=19	=19	=19	=19	=19	=19	=19	=19	=19	=19
[8C/L	8GG\L]	(16a/LL]	8A\L)	.	.	(8e/L	-le-	Luft	.
.	.	16g/	.	.	.	.	.	.	.
8C/]	8CC\	16f#/	8A\	.	.	8f#/J)	.	.	.
.	.	16e/	.	.	.	.	.	.	.
8BB/J	8BBB\J	16f#/	16d\L	.	.	8a/	-głej	er-	.
.	.	16a/JJ)	16c\JJ	.	.	.	.	.	.
8AA/L	8AAA\L	(4cc/	4B\ 4e	.	.	4.cc\	wsi.	-füllt.	.
8GG/	8GGG\	.	.	.	.	.	.	.	.
8FF#/J	8FFF#\J	8a/)	8c\ 8e	.	.	.	.	.	.
*v	*v	*	*	*	*	*	*	*	*
=20	=20	=20	=20	=20	=20	=20	=20	=20
*	*	*^	*	*	*	*	*	*
4.BBB/ 4.BB	(4.g/	8d#/L	4.B\	.	.	2.r	.	.	.
.	.	8c#X/	.	.	.	.	.	.	.
.	.	[8d/J	.	.	.	.	.	.	.
*	*v	*v	*v	*	*	*	*	*	*
*8va	*	*	*	*	*	*	*
*	*^	*	*	*	*	*	*
*	*	*^	*	*	*	*	*	*
!LO:TX:t=P:problem: przenośnik oktawowy 8va zapisany na dole	!	!	!	!	!	!	!	!	!
4BB/ 4B	4.f##X/) 4.b	4.d\]	4.A\	.	.	.	.	.	.
*X8va	*	*	*	*	*	*	*	*	*
[8BB/	.	.	.	.	.	.	.	.	.
*	*v	*v	*v	*	*	*	*	*	*
=21	=21	=21	=21	=21	=21	=21	=21
*tremolo	*tremolo	*	*	*	*	*	*
!	!	!	!	!LO:TX:a:i:t=sotto voce	!	!	!LO:DY:a
32EE/LLL 32BB]	32e/LLL 32g	.	pp	8b\	Słu-	Lau-	p
!	!LO:TX:b:i:t=murmurando	!	!	!	!	!	!
32C/	32B/	.	.	.	.	.	.
32EE/ 32BB	32e/ 32g	.	.	.	.	.	.
32C/	32B/	.	.	.	.	.	.
32EE/ 32BB	32e/ 32g	.	.	8a/	-cha,	-schet	.
32C/	32B/	.	.	.	.	.	.
32EE/ 32BB	32e/ 32g	.	.	.	.	.	.
32C/	32B/	.	.	.	.	.	.
32EE/ 32BB	32e/ 32g	.	.	16r	.	.	.
32C/	32B/	.	.	.	.	.	.
32EE/ 32BB	32e/ 32g	.	.	16g/	jak	dem	.
32C/JJJ	32B/JJJ	.	.	.	.	.	.
32EE/LLL 32C	32e/LLL 32f#	.	.	(4f#/	szep-	Flü-	.
32E/	32c/	.	.	.	.	.	.
32EE/ 32C	32e/ 32f#	.	.	.	.	.	.
32E/	32c/	.	.	.	.	.	.
32EE/ 32C	32e/ 32f#	.	.	.	.	.	.
32E/	32c/	.	.	.	.	.	.
32EE/ 32C	32e/ 32f#	.	.	.	.	.	.
32E/	32c/	.	.	.	.	.	.
32EE/ 32C	32e/ 32f#	.	.	8cc\)	-cą	-stern	.
32E/	32c/	.	.	.	.	.	.
32EE/ 32C	32e/ 32f#	.	.	.	.	.	.
32E/JJJ	32c/JJJ	.	.	.	.	.	.
!!LO:LB:g=original	!	!	!	!	!	!
=22	=22	=22	=22	=22	=22	=22	=22
32EE/LLL 32BB	32e/LLL 32g	.	.	8cc\	drżą-	be-	.
32C/	32c/	.	.	.	.	.	.
32EE/ 32BB	32e/ 32g	.	.	.	.	.	.
32C/	32c/	.	.	.	.	.	.
32EE/ 32BB	32e/ 32g	.	.	8b\	-ce	-ben-	.
32C/	32c/	.	.	.	.	.	.
32EE/ 32BB	32e/ 32g	.	.	.	.	.	.
32C/	32c/	.	.	.	.	.	.
32EE/ 32BB	32e/ 32g	.	.	8a/	o-	-der	.
32C/	32c/	.	.	.	.	.	.
32EE/ 32BB	32e/ 32g	.	.	.	.	.	.
32C/JJJ	32c/JJJ	.	.	.	.	.	.
32EE/LLL 32BB	32e/LLL 32g	.	.	4g/	-si-	Es-	.
32E/	32B/	.	.	.	.	.	.
32EE/ 32BB	32e/ 32g	.	.	.	.	.	.
32E/	32B/	.	.	.	.	.	.
32EE/ 32BB	32e/ 32g	.	.	.	.	.	.
32E/	32B/	.	.	.	.	.	.
32EE/ 32BB	32e/ 32g	.	.	.	.	.	.
32E/JJJ	32B/JJJ	.	.	.	.	.	.
*Xtremolo	*Xtremolo	*	*	*	*	*	*
32DD/LLL 32BB	32e/LLL 32f#	.	pp	8f#/	-ny,	-pen,	.
32D/	32B/	.	.	.	.	.	.
32DD/ 32BB	32d/ 32f#	.	.	.	.	.	.
32D/JJJ	32B/JJJ	.	.	.	.	.	.
=23	=23	=23	=23	=23	=23	=23	=23
*	*^	*	*	*	*	*	*
*tremolo	*	*	*	*	*	*	*	*
32CC/LLL 32GG	8e/L	8d\L	.	.	8e/	Mal-	Flie-	.
32C/	.	.	.	.	.	.	.	.
32CC/ 32GG	.	.	.	.	.	.	.	.
32C/	.	.	.	.	.	.	.	.
32CC/ 32GG	8e/	8c\	.	.	8e/	-wy	-der	.
32C/	.	.	.	.	.	.	.	.
32CC/ 32GG	.	.	.	.	.	.	.	.
32C/	.	.	.	.	.	.	.	.
32CC/ 32GG	8e/J	8B\J	.	.	8e/	i	und	.
32C/	.	.	.	.	.	.	.	.
32CC/ 32GG	.	.	.	.	.	.	.	.
32C/JJJ	.	.	.	.	.	.	.	.
32CC/LLL 32GG	(8e/L	4.A#X\	.	<	[4.ee\	bez;	Klee,	.
32C/	.	.	.	.	.	.	.	.
32CC/ 32GG	.	.	.	.	.	.	.	.
32C/	.	.	.	.	.	.	.	.
32CC/ 32GG	8g/	.	.	.	.	.	.	.
32C/	.	.	.	.	.	.	.	.
32CC/ 32GG	.	.	.	.	.	.	.	.
32C/	.	.	.	.	.	.	.	.
32CC/ 32GG	8a#X/J)	.	.	.	.	.	.	.
32C/	.	.	.	.	.	.	.	.
32CC/ 32GG	.	.	.	.	.	.	.	.
32C/JJJ	.	.	.	[[	.	.	.	.
=24	=24	=24	=24	=24	=24	=24	=24	=24
*ped	*	*	*	*	*	*	*	*
!	!LO:TX:b:i:t=armonioso	!	!	!	!	!	!	!
!	!LO:TX:a:i:t=m.g.	!	!	!	!	!	!	!
4.CC::/ 4.GG:: 4.E::	4.ee::/	4.A#X::\ 4.e:: 4.a#X::	.	.	4ee\]	.	.	.
.	.	.	.	.	8r	.	.	.
!	!LO:TX:a:i:t=m.g.	!	!	!	!	!	!	!
*ped	*	*	*	*	*	*	*	*
4.BBB/ 4.FF# 4.BB	4dd#X/	4.An\ 4.d#X 4.an	.	>	4r	.	.	.
.	[<8B/ [8b	.	.	]]	8r	]	.	.
=25	=25	=25	=25	=25	=25	=25	=25	=25
*ped	*	*	*	*	*	*	*	*
4.AAA^>/ 4.AA	8.B/L] 8.b]	4.d#\ 4.f#	.	.	8b\	I	Hö-	.
.	.	.	.	.	8dd#X\	roz-	-ret	.
.	16B/K 16b	.	.	.	.	.	.	.
.	[<8B/J [8b	.	.	.	8ff#\	-pła-	das	.
*ped	*	*	*	*	*	*	*	*
4.AAA^>/ 4.AA	8.B/L] 8.b]	4.f#\ 4.a	.	.	4ee\	-ka-	bit-	.
.	16B/K 16b	.	.	.	.	.	.	.
.	[<8B/J [8b	.	.	.	8b\	-nej	-ter	.
!!LO:LB:g=original	!	!	!	!	!	!	!
=26	=26	=26	=26	=26	=26	=26	=26	=26
4.AAA^>/ 4.AA	8.B/L] 8.b]	4.d#X\ 4.a	.	.	8.b\	słu-	schluch-	.
.	16B/K 16b	.	.	.	16dd#X\	-cha	-zen-	.
.	[<8B/J [8b	.	.	.	8ff#\	dziew-	-de	.
4EEE/ 4EE	8.B/L] 8.b]	4.e\ 4.g	.	.	8ee\	-czy-	Mäd-	.
.	.	.	.	.	8b\	-ny.	-chen,	.
.	16B/K 16b	.	.	.	.	.	.	.
8DDDn/ 8DDn	8B/J 8b	.	.	.	16r	.	.	.
.	.	.	.	.	16b\	Jej	Ihr	.
*	*v	*v	*	*	*	*	*	*
=27	=27	=27	=27	=27	=27	=27	=27
*8ba	*	*	*	*	*	*	*
!	!	!	!	!	!	!	!LO:DY:a
4CCC/ 4CC	8B/L [8e 8b	.	<	(8b\L	skarg,	Leid	<
.	8c/ 8e] 8cc	.	.	8cc\J)	.	.	.
((8BBBB/ 8BBB	8e/J 8cc 8ee	.	.	8ee\	jej	und	.
!	!	!	!	!	!	!	!LO:DY:a
8AAAA/)) 8AAA	4a\ 4cc 4ee 4aa	.	.	(4aa\	łez.	Weh.	[ >
*X8ba	*	*	*	*	*	*	*
*Xtremolo	*	*	*	*	*	*	*
8AAA/L 8AA	.	.	.	.	.	.	.
[8AA/J [8A	[8g\ [>8cc [8ee [8gg	.	[[	8gg\)	.	.	]]
=28	=28	=28	=28	=28	=28	=28	=28
8AA\] 8A]	16g/LL] 16cc_ 16ee_ 16gg]	.	>	2.r	.	.	.
.	16f#/J 16cc] 16ee] 16ff#	.	.	.	.	.	.
8AAA/L 8AA	8e/ 8a 8cc 8ee	.	.	.	.	.	.
8GGG/J 8GG	8c/J 8e 8a 8cc	.	.	.	.	.	.
8FFF#/ 8FF#	4c/ 4e 4a 4cc	.	.	.	.	.	.
((4BBB/ 4BB	.	.	.	.	.	.	.
.	[8B/ [8d#X [8a [8b	.	]]	.	.	.	.
=29||	=29||	=29||	=29||	=29||	=29||	=29||	=29||
*M3/8	*M3/8	*	*	*M3/8	*	*	*
(>4FF#/)) 4F#	((4.B/] 4.d#] 4.a] 4.b]	.	p	4.r	.	.	.
8BBB/) 8BB	.	.	.	.	.	.	.
!!LO:PB:g=original	!	!	!	!	!	!
=30||	=30||	=30||	=30||	=30||	=30||	=30||	=30||
*M6/8	*M6/8	*	*	*M6/8	*	*	*
*	*	*	*	*^	*	*	*
!	!LO:TX:b:i:t=una corda	!	!	!	!	!	!	!
!	!LO:TX:a:i:t=misterioso	!	!	!LO:TX:a:B:t=Tempo I.	!	!	!	!
NN(>32CC:\LLL 32C:	8e-X/)) 8g-X 8b-X	.	.	8b-X/	16.r	W wod-	In	.
32E-X\	.	.	.	.	.	.	.	.
32G-X\	.	.	.	.	.	.	.	.
*	*	*	*	*	*cue	*	*	*
32B-X\JJJ	.	.	.	.	32b-\	.	.	.
!	!LO:TX:b:i:t=d.	!	!	!	!	!	!	!
8ryy	32c/LLL	.	.	8b-/	8b-\	-nych	Wal-	.
.	32e-/	.	.	.	.	.	.	.
.	32g-/	.	.	.	.	.	.	.
.	32b-/JJJ	.	.	.	.	.	.	.
!	!LO:TX:a:i:t=g.	!	!	!	!	!	!	!
8ryy	32c\LLL	.	.	8b-/	8b-\	wi-	-des-	.
.	32e-\	.	.	.	.	.	.	.
.	32g-\	.	.	.	.	.	.	.
.	32b-\JJJ	.	.	.	.	.	.	.
!	!LO:TX:a:i:t=d.	!	!	!	!	!	!	!
4ryy	32cc/LLL	.	.	4ee-X\	4ryy	-kli-	-tie-	.
.	32ee-X/	.	.	.	.	.	.	.
.	32gg-X/	.	.	.	.	.	.	.
.	32bb-X/JJJ	.	.	.	.	.	.	.
!	!LO:TX:a:i:t=g.	!	!	!	!	!	!	!
.	32cc\LLL	.	.	.	.	.	.	.
.	32ee-\	.	.	.	.	.	.	.
.	32gg-\)	.	.	.	.	.	.	.
.	32bb-\JJJNN)<	.	.	.	.	.	.	.
*	*	*	*	*v	*v	*	*	*
*	*8va	*	*	*	*	*	*
*	*	*	*	*^	*	*	*
!	!LO:TX:b:i:t=m.d.	!	!	!	!	!	!	!
8ryy	8eeeny\ 8gggny 8bbbny 8eeee-X	.	.	8ee-\	8ryy	-nach.	-fe,	.
*	*	*	*	*v	*v	*	*	*
*	*X8va	*	*	*	*	*	*
=31	=31	=31	=31	=31	=31	=31	=31
*	*	*	*	*^	*	*	*
NN(>32C\LLL	8r	.	.	8b-X/	16.r	w blas-	und	.
32E-X\	.	.	.	.	.	.	.	.
32G-X\	.	.	.	.	.	.	.	.
32B-X\JJJ	.	.	.	.	32b-\	.	.	.
!	!LO:TUP:a:problem:klamra łukowa	!	!	!	!	!	!	!
8r	40c/LLL	.	.	8b-/	8b-\	-ku	Mon-	.
.	40e-X/	.	.	.	.	.	.	.
.	40g-X/	.	.	.	.	.	.	.
.	40b-X/	.	.	.	.	.	.	.
.	40cc/JJJNN)<	.	.	.	.	.	.	.
!	!LO:TX:b:i:t=m.g.	!	!	!	!	!	!	!
8r	8ee-X\ 8gg-X 8bb-X	.	.	8cc\	8ryy	księ-	-den-	.
NN(>32FFn\LLL	8r	.	.	8a/	4ryy	-ży-	-flim-	.
32C\	.	.	.	.	.	.	.	.
32Fn\	.	.	.	.	.	.	.	.
32A\JJJ	.	.	.	.	.	.	.	.
8r	32c/LLL	.	.	8fn/	.	-ca,	-mer,	.
.	32fn/	.	.	.	.	.	.	.
.	32a/	.	.	.	.	.	.	.
.	32cc/JJJ	.	.	.	.	.	.	.
!	!LO:TX:b:i:t=m.g	!	!	!	!	!	!	!
8r	8ffn\NN)< 8aa	.	.	16r	8ryy	.	.	.
.	.	.	.	16f/	.	W pół-	Um	.
*	*	*	*	*v	*v	*	*	*
!!LO:LB:g=original	!	!	!	!	!	!
=32	=32	=32	=32	=32	=32	=32	=32
!	!	!	!	!	!	!	!LO:DY:a
NN(>32EE-X\LLL	8r	.	.	(8g-X/L	-noc-	Mit-	<
32BB-X\	.	.	.	.	.	.	.
32E-X\	.	.	.	.	.	.	.
32G-X\JJJ	.	.	.	.	.	.	.
8ryy	32B-X/LLL	.	.	8b-X/J)	.	.	.
.	32e-X/	.	.	.	.	.	.
.	32g-X/	.	.	.	.	.	.
.	32b-X/JJJNN)<	.	.	.	.	.	.
!	!LO:TX:b:i:t=m.g.	!	!	!	!	!	!
8ryy	8ee-X\ 8gg-X 8bb-X	.	.	8ee-X\	ny	-ter	.
NN(>32CC\LLL	8r	.	.	[4.gg\	chłód,	nacht,	[[
32GG-X\	.	.	.	.	.	.	.
32BB-\	.	.	.	.	.	.	.
32E-\JJJ	.	.	.	.	.	.	.
4ryy	32G-X/LLL	.	.	.	.	.	.
.	32B-/	.	.	.	.	.	.
.	32e-/	.	.	.	.	.	.
.	32g-/JJJ	.	.	.	.	.	.
.	32b-\LLL	.	.	.	.	.	.
.	32ee-\	.	.	.	.	.	.
.	32gg-\	.	.	.	.	.	.
.	32bb-\JJJNN)<	.	.	.	.	.	.
=33||	=33||	=33||	=33||	=33||	=33||	=33||	=33||
*M3/8	*M3/8	*	*	*M3/8	*	*	*
!	!	!	!	!	!	!	!LO:DY:a
4.ryy	(32bbb-X/LLL	.	.	4.gg\]	.	.	>]
.	32ggg-X/	.	.	.	.	.	.
.	32eee-X/	.	.	.	.	.	.
.	32ccc/JJJ	.	.	.	.	.	.
!	!LO:TX:b:i:t=m.g.	!	!	!	!	!	!
.	32bb-X\LLL	.	.	.	.	.	.
.	32gg-X\	.	.	.	.	.	.
.	32ee-X\	.	.	.	.	.	.
.	32cc\JJJ	.	.	.	.	.	.
.	32b-X/LLL	.	.	.	.	.	.
.	32g-X/	.	.	.	.	.	.
.	32e-X/	.	.	.	.	.	.
.	32c/JJJ)	.	.	.	.	.	.
=34	=34	=34	=34	=34	=34	=34	=34
8r	NN[>32a#X/LLL	.	.	4.r	.	.	.
.	NN[>32gn/	.	.	.	.	.	.
.	NN[>32en/	.	.	.	.	.	.
.	NN[<32c/JJJ	.	.	.	.	.	.
!	!LO:TX:a:i:t=poco rit.	!	!	!	!	!	!
NN[32A#X\LLL	8c/NN] 8eNN] 8gNN] 8a#NN]	.	.	.	.	.	.
NN[32G\	.	.	.	.	.	.	.
NN[32E\	.	.	.	.	.	.	.
NN[<32C\JJJ	.	.	.	.	.	.	.
8C\NN] 8ENN] 8GNN] 8A#NN]	(32a#~/LLL	.	.	.	.	.	.
.	32g~/	.	.	.	.	.	.
.	32e~/	.	.	.	.	.	.
.	32c~/JJJ)	.	.	.	.	.	.
!!LO:LB:g=original	!	!	!	!	!	!
=35	=35	=35	=35	=35	=35	=35	=35
*k[f#c#]	*k[f#c#]	*	*	*k[f#c#]	*	*	*
*M6/8	*M6/8	*	*	*M6/8	*	*	*
*	*	*	*	*^	*	*	*
!	!LO:TX:a:i:t=a tempo	!	!	!LO:TX:a:i:t=a tempo	!	!	!	!
NN(>32CC#:\LLL 32C#:	8r	.	.	16r	4ryy	.	.	.
32E\	.	.	.	.	.	.	.	.
32G\	.	.	.	16b\	.	Ru-	Des	.
32B\JJJ	.	.	.	.	.	.	.	.
8r	32c#/LLL	.	.	8b\	.	-sał-	Ni-	.
.	32e/	.	.	.	.	.	.	.
.	32g/	.	.	.	.	.	.	.
.	32b/JJJ	.	.	.	.	.	.	.
8r	32c#/LLL	.	.	8b\	8ryy	-ka	-xen	.
.	32e/	.	.	.	.	.	.	.
.	32g/	.	.	.	.	.	.	.
.	32b/JJJ	.	.	.	.	.	.	.
4r	32cc#\LLL	.	.	8.ee/	4ee\yy	pa-	au-	.
.	32ee\	.	.	.	.	.	.	.
.	32gg\	.	.	.	.	.	.	.
.	32bb\JJJ	.	.	.	.	.	.	.
.	32cc#\LLL	.	.	.	.	.	.	.
.	32ee\	.	.	.	.	.	.	.
.	32gg\	.	.	16ee/	.	-trzy	.	.
.	32bb\JJJNN)<	.	.	.	.	.	.	.
*	*	*	*	*v	*v	*	*	*
*	*8va	*	*	*	*	*	*
*	*	*	*	*^	*	*	*
!	!LO:TX:b:i:t=m.d.	!	!	!	!	!	!	!
8r	8eee:/ 8ggg: 8bbb: 8eeee:	.	.	[8ee/	8ee\	nań	-ges	.
*	*	*	*	*v	*v	*	*	*
*	*X8va	*	*	*	*	*	*
=36	=36	=36	=36	=36	=36	=36	=36
!	!	!	!	!LO:TX:t=P:problem: VHV nie wyświetla pauzy	!	!	!
NN(32C#\LLL	8r	.	.	8ee/]	.	.	.
32E\	.	.	.	.	.	.	.
32G\	.	.	.	.	.	.	.
32B\JJJ	.	.	.	.	.	.	.
!	!LO:TX:b:i:t=d.	!	!	!	!	!	!
8r	32c#/LLL	.	.	8b\	bla-	blei-	.
.	32e/	.	.	.	.	.	.
.	32g/	.	.	.	.	.	.
.	32b/JJJ	.	.	.	.	.	.
!	!LO:TX:b:i:t=g.	!	!	!	!	!	!
8r	8ee\NN) 8gg 8bb	.	.	8cc#\	-do-	-cher	.
NN(32FF#\LLL	8r	.	.	8a#X/	-li-	Schim-	.
32C#\	.	.	.	.	.	.	.
32F#\	.	.	.	.	.	.	.
32A#X\JJJ	.	.	.	.	.	.	.
8r	32c#/LLL	.	.	8f#X/	-ca	.	.
.	32f#/	.	.	.	.	.	.
.	32a#X/	.	.	.	.	.	.
.	32cc#/JJJ	.	.	.	.	.	.
!	!LO:TX:b:i:t=g.	!	!	!	!	!	!
8r	8ff#\NN) 8aa#X	.	.	16r	.	.	.
.	.	.	.	8qqf#\	.	.	.
.	.	.	.	16f#/	 Z prze-	-mer	.
!!LO:LB:g=original	!	!	!	!	!	!
=37	=37	=37	=37	=37	=37	=37	=37
*	*	*	*	*^	*	*	*
NN(32EE\LLL	8ryy	.	.	8g/L	8g\	-past-	Sill-	.
32BB\	.	.	.	.	.	.	.	.
32E\	.	.	.	.	.	.	.	.
32G\JJJ	.	.	.	.	.	.	.	.
*	*	*below	*	*	*	*	*	*
8ryy	32B/LLL	1	.	8b/J	8b\	.	-schwei	.
.	32e/	.	.	.	.	.	.	.
.	32g/	.	.	.	.	.	.	.
.	32b/JJJ	1	.	.	.	.	.	.
!	!LO:TX:a:i:t=d.	!	!	!	!	!	!	!
8ryy	8ee\NN) 8gg 8bb	.	.	8ee\	2ryy	-nych	gend	.
NN(32CC#\LLL	8ryy	.	.	[4.gg\	.	wód	wacht.	.
32GG\	.	.	.	.	.	.	.	.
32BB\	.	.	.	.	.	.	.	.
32E\JJJ	.	.	.	.	.	.	.	.
8ryy	32G/LLL	.	.	.	.	.	.	.
.	32B/	.	.	.	.	.	.	.
.	32e/	.	.	.	.	.	.	.
.	32g/JJJ	.	.	.	.	.	.	.
8ryy	32b\LLL	.	.	.	.	.	.	.
.	32ee\	.	.	.	.	.	.	.
.	32gg\	.	.	.	.	.	.	.
.	32bb\JJJNN)	.	.	.	.	.	.	.
*	*	*	*	*v	*v	*	*	*
=38||	=38||	=38||	=38||	=38||	=38||	=38||	=38||
*M3/8	*M3/8	*	*	*M3/8	*	*	*
4.ryy	(32bbb/LLL	.	.	4.gg\]	.	.	.
.	32ggg/	.	.	.	.	.	.
.	32eee/	.	.	.	.	.	.
.	32ccc#/JJJ	.	.	.	.	.	.
!	!LO:TX:b:i:t=g.	!	!	!	!	!	!
.	32bb\LLL	.	.	.	.	.	.
.	32gg\	.	.	.	.	.	.
.	32ee\	.	.	.	.	.	.
.	32cc#\JJJ	.	.	.	.	.	.
!	!LO:TX:b:i:t=poco rit.	!	!	!	!	!	!
.	32b/LLL	.	.	.	.	.	.
.	32g/	.	.	.	.	.	.
.	32e/	.	.	.	.	.	.
.	32c#/JJJ	.	.	.	.	.	.
*kcancel	*kcancel	*	*	*kcancel	*	*	*
!!LO:PB:g=original	!	!	!	!	!	!	!
=39	=39	=39	=39	=39	=39	=39	=39
*	*^	*	*	*	*	*	*
!	!LO:TX:b:i:t=molto rit.	!	!	!	!	!	!	!
8r	NN[32b-X/LLL	4r	.	.	4.r	.	.	.
.	NN[32g/	.	.	.	.	.	.	.
.	NN[32d/	.	.	.	.	.	.	.
.	NN[<32cn/JJJ)	.	.	.	.	.	.	.
(32B-X\LLL	8c/NN] 8dNN] 8gNN] 8b-NN]	.	.	.	.	.	.	.
32G\	.	.	.	.	.	.	.	.
32D\	.	.	.	.	.	.	.	.
32Cn\JJJ)	.	.	.	.	.	.	.	.
8BB-X\ 8A-X	[32b-/LLL	32c\LLL	.	.	.	.	.	.
.	32b-/_	32a-X\	.	.	.	.	.	.
.	32b-/_	[>32d\ 32a-	.	.	.	.	.	.
.	32b-/JJJ]	32B-X\JJJ 32d] 32a-	.	.	.	.	.	.
*	*v	*v	*	*	*	*	*	*
=40||	=40||	=40||	=40||	=40||	=40||	=40||	=40||
*k[b-e-a-]	*k[b-e-a-]	*	*	*k[b-e-a-]	*	*	*
*M6/8	*M6/8	*	*	*M6/8	*	*	*
*8ba	*	*	*	*	*	*	*
*	*^	*	*	*^	*	*	*
!	!LO:TX:b:i:t=marcato la melodia	!	!	!	!	!	!	!	!
!	!LO:TX:b:i:t=quasi campana	!	!	!	!LO:TX:a:i:t=a tempo	!	!	!	!
!	!LO:TX:a:i:t=  a tempo	!	!	!	!LO:TX:a:B:t=Poco maestoso.	!	!	!	!
4BBBB-^/ 4BBB-	8B-:/L 8e-: 8g: 8b-:	4ryy	.	.	8gg\	4ryy	Słu-	Hö-	.
.	8e-/ 8g 8b- 8ee-	.	.	.	8gg\	.	-cha	-ret	.
4BBBB-^/ 4BBB-	8c/J 8e- 8a- 8cc	8ryy	.	.	8gg\	8ryy	ję-	die	.
!	!	!	!	!	!	!	!	!	!LO:DY:a
.	8.dd/L	8d\L 8f#X 8b-	.	.	8.bb-/L	8.bb-\	-czą-	wim-	>
4BBBB-^/ 4BBB-	.	16d\L [>16fn [>16a-	.	.	.	.	.	.	.
.	.	.	.	.	16qqdd\	.	.	.	.
.	16cc/K	16c\J 16f] 16a-]	.	.	16aa-/Jk	16aa-\	.	-mern-	.
.	.	.	.	.	16qqcc\	.	.	.	.
.	[8b-/J	[8B-\J 8d 8a-	.	.	8aa-/	8aa-\	-cych	-den	.
.	.	.	.	.	8qqb-\	.	.	.	]
=41	=41	=41	=41	=41	=41	=41	=41	=41	=41
4BBBB-^>/ 4BBB-	8b-/L]	8B-\L] 8e- 8g	.	.	(8gg/	4ryy	dzwo-	To-	.
!	!	!	!	!	!LO:N:n=5:paren=ed	!	!	!	!
.	.	.	.	.	8qqb-\	.	.	.	.
.	8gg/	8g\ 8b-	.	.	8.g/)	.	-nów	.	.
[8BBBB-^>/ [8BBB-	8ee-/J	8e-\J 8g 8b-	.	.	.	8ryy	.	.	.
.	.	.	.	.	16g/	.	po-	-ten-	.
8BBBB-/L] 8BBB-]	4dd/	8d\L 8f#X 8b-	.	.	8a-/	4a-\	-grze-	-glo-	.
8BBBBn/ 8BBBn	.	8d\ 8fn 8a-	.	.	8a-/	.	-bnych,	.	.
8CCC/J 8CC	8cc/	8c\J 8e- 8an	.	.	8an/	8a\	Ich	-cken,	.
*	*v	*v	*	*	*	*	*	*	*
!!LO:LB:g=original	!	!	!	!	!	!	!	!
=42	=42	=42	=42	=42	=42	=42	=42	=42
4DDD~>/ 4DD	8B-~>/L 8d 8g 8b-	.	.	(8b-/L	8b-\	wiel-	Kla-	.
.	8c~>/ 8e- 8g 8cc	.	.	8cc/J)	8cc\	.	-gen	.
*	*	*	*	*v	*v	*	*	*
*X8ba	*	*	*	*	*	*	*
*	*	*	*	*^	*	*	*
4DD~>/ 4GG 4BB- 4D	8c#X~>/J 8g 8b#X 8cc	.	.	8cc#X\	8cc#\yy	-kich	und	.
.	8d~>\L 8g 8b# 8dd	.	<	[4.dd/yy	4dd\	łkań,	Wei-	.
4D~>\ 4G 4B- 4d	8g~>\ 8b# 8dd 8gg	.	.	.	.	.	.	.
.	8b#~>\J 8dd 8gg 8bb-	.	.	.	[8dd\	.	.	.
*clefG2	*	*	*	*	*	*	*	*
=43	=43	=43	=43	=43	=43	=43	=43	=43
*	*^	*	*	*	*	*	*	*
4.c/ 4.d 4.en 4.f#X 4.b-	2.ddd/	4.dd\ 4.ff#X 4.bb-	.	[ f >	4dd/]	4dd\]	.	-nen,	.
.	.	.	.	.	8r	8ryy	.	.	.
4.c/ 4.d 4.f# 4.an	.	4.dd\ 4.ff# 4.aan	.	.	4r	4ryy	.	.	.
.	.	.	.	.	8r	8ryy	.	.	.
*clefF4	*	*	*	*	*	*	*	*	*
*	*v	*v	*	*	*	*	*	*	*
=44	=44	=44	=44	=44	=44	=44	=44	=44
!	!	!	!	!	!	!	!	!LO:DY:a
4.CC:/ 4.EE-: 4.AA-X: 4.C: 4.E-:	4.e-/ 4.a-X 4.ee-	.	] pp	(8ee-\	4ryy	I	Sie-	p
.	.	.	.	8dd\)	.	roz-	-het	.
.	.	.	.	8cc\yy	8cc\	-pły-	am	.
*clefG2	*	*	*	*	*	*	*	*
4.c/ 4.e- 4.a- 4.cc	4.ee-\ 4.aa-X 4.eee-	.	.	4ee-/	8ee-\	-nię-	Him-	.
.	.	.	.	.	8ee-\	.	.	.
.	.	.	.	8ee-/	16r	-tych	-mel der	.
.	.	.	.	.	16ee-\	.	.	.
*clefF4	*	*	*	*	*	*	*	*
*	*	*	*	*v	*v	*	*	*
!!LO:LB:g=original	!	!	!	!	!	!	!
=45||	=45||	=45||	=45||	=45||	=45||	=45||	=45||
*k[f#c#]	*k[f#c#]	*	*	*k[f#c#]	*	*	*
4.CC#:/ 4.GG: 4.AA: 4.G:	4.e/ 4.g 4.a 4.ee	.	.	8eenZX\	kę-	trü-	.
.	.	.	.	8dd\	-dyś	-gen-	.
.	.	.	.	8cc#\	pod-	-den	.
*clefG2	*	*	*	*	*	*	*
4.c#::/ 4.g:: 4.a:: 4.ee::	4ee::\ 4gg:: 4aa:: 4eee::	.	.	4ee-y\	-nieb-	Ster-	.
.	[8ee\ [8eee	.	.	8ee-\	-nych	-ne	.
*clefF4	*	*	*	*	*	*	*
=46	=46	=46	=46	=46	=46	=46	=46
4.DDD/ 4.DD	8ee\L] 8gg 8bb 8eee]	.	.	(8.gg\L	Gwiad	Leuch-	.
.	8dd~\ 8ff# 8bb 8ddd	.	.	.	.	.	.
.	.	.	.	16ff#\K	.	.	.
.	8ccn~\J 8ee 8aa 8cccn	.	.	8ee\J)	.	.	.
4D\ 4G 4B 4d	8b~\L 8dd 8gg 8bb	.	.	8dd\L	błęd-	-ten	.
.	8g~\ 8b 8dd 8gg	.	.	8b\J	.	.	.
[8EE/ [8E	[8d~^\J [<8g [8b [8dd	.	.	8g/	-nych	und	.
=47	=47	=47	=47	=47	=47	=47	=47
*	*^	*	*	*^	*	*	*
!	!LO:TX:b:i:t=rit.	!	!	!	!	!	!	!	!
8EE/L] 8E]	8g/] 8b] 8dd]	8d\L]	.	.	(4.b/	4.b\	drgań.	Schei-	.
8EE/ 8E	4g~/ [4b	8d\	.	.	.	.	.	.	.
8EE-X/J 8E-X	.	8c#X\J	.	.	.	.	.	.	.
4DD/ 4D	8b/L]	4.cn\ 4.f#	.	.	4.dd/)	4.dd\	.	-nen.	.
.	(<8b-X~/	.	.	>	.	.	.	.	.
8DDD;/ 8DD	8a;/J)	.	.	]]	.	.	.	.	.
*	*v	*v	*	*	*	*	*	*	*
*	*	*	*	*v	*v	*	*	*
!!LO:LB:g=original	!	!	!	!	!	!	!
=48||	=48||	=48||	=48||	=48||	=48||	=48||	=48||
*k[f#]	*k[f#]	*	*	*k[f#]	*	*	*
*	*^	*	*	*	*	*	*
!	!LO:TX:a:B:t=Tempo I	!	!	!	!	!	!	!
!	!LO:TUP:a:problem:klamra łukowa i cyfra	!	!	!	!	!	!	!
*	*	*Xtuplet	*	*	*	*	*	*
4.GG/ 4.D	24g/LL	24ryy\	.	.	2.r	.	.	.
!	!	!LO:TX:t=P:problem: błąd wyświetlania VHV	!	!	!	!	!	!
!	!	!LO:N:vis=8	!	!	!	!	!	!
.	24d/	NN[24d\	.	.	.	.	.	.
.	24g/JJ	24ryy	.	.	.	.	.	.
.	4a^/	4d\NN]	.	.	.	.	.	.
*	*Xtuplet	*	*	*	*	*	*	*
4.GG/ 4.D	24g/LL	24ryy\	.	.	.	.	.	.
!	!	!LO:TX:t=P:problem: błąd wyświetlania VHV	!	!	!	!	!	!
!	!	!LO:N:vis=8	!	!	!	!	!	!
.	24d/	NN[24d\	.	.	.	.	.	.
.	24g/JJ	24ryy	.	.	.	.	.	.
.	4a~/	4d\NN]	.	.	.	.	.	.
=49	=49	=49	=49	=49	=49	=49	=49	=49
4.GG/ 4.D	24g/LL	24ryy\	.	.	2.r	.	.	.
!	!	!LO:TX:t=P:problem: błąd wyświetlania VHV	!	!	!	!	!	!
!	!	!LO:N:vis=8	!	!	!	!	!	!
.	24d/	NN[24d\	.	.	.	.	.	.
.	24g/JJ	24ryy	.	.	.	.	.	.
.	(8a/L	4d\NN]	.	.	.	.	.	.
.	8dd/J)	.	.	.	.	.	.	.
.	8qee/	.	.	.	.	.	.	.
4.GG/ 4.D	4.ddT/	4.a\	.	.	.	.	.	.
=50	=50	=50	=50	=50	=50	=50	=50	=50
*	*tuplet	*Xtuplet	*	*	*	*	*	*
!	!LO:TUP:a:problem:klamra łukowa i cyfra	!	!	!	!	!	!	!
4.GG/ 4.D	24g/LL	24ryy\	.	.	2.r	.	.	.
!	!	!LO:TX:t=P:problem: błąd wyświetlania VHV	!	!	!	!	!	!
!	!	!LO:N:vis=8	!	!	!	!	!	!
.	24d/	NN[24d\	.	.	.	.	.	.
.	24g/JJ	24ryy	.	.	.	.	.	.
.	4a/	4d\NN]	.	.	.	.	.	.
*	*Xtuplet	*	*	*	*	*	*	*
4.GG/ 4.D	24g/LL	24ryy\	.	.	.	.	.	.
!	!	!LO:TX:t=P:problem: błąd wyświetlania VHV	!	!	!	!	!	!
!	!	!LO:N:vis=8	!	!	!	!	!	!
.	24d/	NN[24d\	.	.	.	.	.	.
.	24g/JJ	24ryy	.	.	.	.	.	.
.	4a/	4d\NN]	.	.	.	.	.	.
=51	=51	=51	=51	=51	=51	=51	=51	=51
4.GG/ 4.D	24g/LL	24ryy\	.	.	2.r	.	.	.
!	!	!LO:TX:t=P:problem: błąd wyświetlania VHV	!	!	!	!	!	!
!	!	!LO:N:vis=8	!	!	!	!	!	!
.	24d/	NN[24d\	.	.	.	.	.	.
.	24g/JJ	24ryy	.	.	.	.	.	.
.	(8a/L	4d\NN]	.	.	.	.	.	.
.	8dd/J)	.	.	.	.	.	.	.
.	8qee/	.	.	.	.	.	.	.
4.GG/ 4.D	4.ddT/	4.a\	.	.	.	.	.	.
!!LO:PB:g=original	!	!	!	!	!	!	!	!
=52	=52	=52	=52	=52	=52	=52	=52	=52
*	*	*^	*	*	*	*	*	*
4.GG/ 4.D	8g/L	4B\	4ryy	.	.	8.d/	Słu-	Hört,	.
.	8d/	.	.	.	.	.	.	.	.
.	.	.	.	.	.	16g/	-cha,	wie	.
.	8g/J	8ryy	8ryy	.	.	8e/	jak	das	.
4.GG/ 4.D	4.a/	4c\	4e/	.	.	(8f#/L	ser-	Leid	.
.	.	.	.	.	.	8e/J)	.	.	.
.	.	8f#/	8ryy	.	.	8d/	-ca	-die	.
*	*	*v	*v	*	*	*	*	*	*
=53	=53	=53	=53	=53	=53	=53	=53	=53
*	*	*	*	*	*^	*	*	*
((4.GG/ 4.D	8b/L	4.d\	.	.	8.d/	4ryy	w bó-	Her-	.
.	8g/	.	.	.	.	.	.	.	.
.	.	.	.	.	16b\	.	-lu	-zen	.
.	8b/J	.	.	.	8g/	8ryy	się	um-	.
4.GG\)) 4.D 4.A	4.cc/	4c\ 4e	.	.	8f#/	8f#\L	kru-	-hül-	.
.	.	.	.	.	8e/	8e\J	-szą	.	.
.	.	8d\ 8f#	.	.	16r	8ryy	.	.	.
.	.	.	.	.	8qqd,\	.	.	.	.
.	.	.	.	.	16f#/	.	I	-let	.
=54	=54	=54	=54	=54	=54	=54	=54	=54	=54
*^	*	*	*	*	*	*	*	*	*
4.GG/ 4.D	4.B/	8b/L	8d\L	.	.	(8d/L	8d\	rwą	Ach,	.
.	.	8cc/	8e\	.	.	8g/J)	8g\	.	im-	.
.	.	8dd/J	8f#\J	.	.	8b\	2ryy	bez	-mer-	.
4.GG/ 4.D	8.G/L	8ee/L 8gg	4.g\	.	.	[4.dd\	.	sił	-dar	.
.	.	8dd/ 8ff#	.	.	.	.	.	.	.	.
.	16A/K	.	.	.	.	.	.	.	.	.
.	8A#X/J	8cc/J 8ee	.	.	.	.	.	.	.	.
*v	*v	*	*	*	*	*v	*v	*	*	*
*clefG2	*	*	*	*	*	*	*	*
=55	=55	=55	=55	=55	=55	=55	=55	=55
4B/ 4d 4f#	8dd/L	4b\	.	.	4.dd\]	.	.	.
.	8ff#/	.	.	.	.	.	.	.
[8c/ [8d [>8f# [8b-X	[<8bb-X/J	[8dd\ [8ff#	.	.	.	.	.	.
8c/L_ [>8d_ [>8f#_ 8b-]	4bb-/] 4ddd	8dd\L_ 8ff#_	.	.	4r	.	.	.
8c/J] 8d]] 8f#] 8a	.	8dd\J] 8ff#] 8aa	.	.	.	.	.	.
*clefF4	*	*	*	*	*	*	*	*
[>8D/	16r	8ryy	.	.	8r	.	.	.
.	[16d/	.	.	.	.	.	.	.
!!LO:LB:g=original	!	!	!	!	!	!	!	!
=56	=56	=56	=56	=56	=56	=56	=56	=56
*^	*	*	*	*	*	*	*	*
16D/KL]	4.GG\	8bn/L 8dd	4.d\]	.	.	8dd\	Słu-	Al-	.
8D/	.	.	.	.	.	.	.	.	.
.	.	8a/ 8cc	.	.	.	8cc\	-cha	-les,	.
8D/	.	.	.	.	.	.	.	.	.
.	.	8g/J 8b	.	.	.	8b\	wszy-	was	.
16D/Jk	.	.	.	.	.	.	.	.	.
16D/LL	4.GG\	4c/ 4f#/ 4a	4ryy	.	.	4a/	-stkie-	sei-	.
16E/	.	.	.	.	.	.	.	.	.
16C#X/	.	.	.	.	.	.	.	.	.
[16Dn/	.	.	.	.	.	.	.	.	.
16D/]	.	[8cc\ [8ee [8f#\	8ryy	.	.	8ee\	-go,	-ne,	.
16D/JJ	.	.	.	.	.	.	.	.	.
*v	*v	*	*	*	*	*	*	*	*
*	*v	*v	*	*	*	*	*	*
=57	=57	=57	=57	=57	=57	=57	=57
!LO:TX:b:i:t=delicat	!	!	!	!	!	!	!
(>16GG/LL	8f#/L] 8cc] 8ee]	.	.	8ee\	co	See-	.
16D/	.	.	.	.	.	.	.
16G/	8d/ 8b 8dd	.	.	8dd\	je-	-le	.
16C#X/	.	.	.	.	.	.	.
16D/	8B/J 8g 8b	.	.	8b\	-go	er-	.
16D#X/JJ	.	.	.	.	.	.	.
16E/LL	4B/ 4e 4g	.	.	4g/	du-	-fül-	.
16BB/)	.	.	.	.	.	.	.
16EE/	.	.	.	.	.	.	.
[16BB^/	.	.	.	.	.	.	.
16BB/]	8F#/ 8B [<8d	.	.	8d/	-szą	-let	.
16BB/JJ	.	.	.	.	.	.	.
=58	=58	=58	=58	=58	=58	=58	=58
*^	*^	*	*	*	*	*	*
8C/L	16C\LL	8e/L	16E\LL 16d]	.	.	8.e/	By-	Als	.
.	16CC\J	.	16c\J	.	.	.	.	.	.
8BB/	8BBB\	8f#X/	8A\ 8d	.	.	.	.	.	.
.	.	.	.	.	.	16f#/	-ło,	er	.
8BB-X/J	8BBB-X\J	8g/J	8G\J 8dn	.	.	8g/	gdy	noch	.
4ryy	4AA/ 4AAA/	4a/	4G/ 4A 4c 4e	.	.	4.a/	żył	war...	.
*v	*v	*	*	*	*	*	*	*	*
*	*v	*v	*	*	*	*	*	*
*8ba	*	*	*	*	*	*	*
*^	*^	*	*	*	*	*	*
8AAAA/ 8AAA	8ryy	(>8G/ 8A 8c#X 8e#X 8a	8ryy	.	.	.	.	.	.
*v	*v	*	*	*	*	*	*	*	*
*	*v	*v	*	*	*	*	*	*
*X8ba	*	*	*	*	*	*	*
!!LO:LB:g=original	!	!	!	!	!	!	!
=59	=59	=59	=59	=59	=59	=59	=59
*	*^	*	*	*^	*	*	*
4.DDD/ 4.DD	(8cn/L) 8en 8a	4ryy	.	.	8ree	8a\	.	Als	.
!	!LO:TX:b:i:t=rit.	!	!	!	!	!	!	!	!
.	8d/ 8f# 8b	.	.	.	8r	8b\	.	er	.
.	8e/J) 8a 8cc	8ryy	.	.	16r	8ryy	.	.	.
!	!	!	!	!	!LO:TX:a:i:t=rit.	!	!	!	!
.	.	.	.	.	16cc\	.	gdy	noch	.
(16GGG/LL	4f#/ 4b 4dd	(8d\L	.	.	[4.dd\	4ryy	żył...	war...	.
16DD/	.	.	.	.	.	.	.	.	.
16GG/	.	8e\	.	.	.	.	.	.	.
16D/	.	.	.	.	.	.	.	.	.
16B/	8cc/ [8dd	8f#\J)	.	.	.	8ryy	.	.	.
16A/JJ)	.	.	.	.	.	.	.	.	.
*	*	*	*	*	*v	*v	*	*	*
=60	=60	=60	=60	=60	=60	=60	=60	=60
*^	*	*	*	*	*	*	*	*
!	!	!LO:TX:b:i:t=marcato	!	!	!	!	!	!	!
4.G~/	[4.GG\ [4.D	8dd/L]	4.g\ 4.b	.	.	4.dd\_	.	.	.
.	.	8gg/	.	.	.	.	.	.	.
.	.	8ee/J	.	.	.	.	.	.	.
4.A~/	4.GG\] 4.D]	8.ff#/L	4.cc\	.	.	8dd\]	.	.	.
.	.	.	.	.	.	8r	.	.	.
.	.	16ee/K	.	.	.	.	.	.	.
.	.	[8dd/J	.	.	.	8r	.	.	.
=61	=61	=61	=61	=61	=61	=61	=61	=61	=61
*	*^	*	*	*	*	*	*	*	*
4.B~:/	4.ryy	4.GG:\ 4.D:\	8dd/L]	4.b\	.	.	2.r	.	.	.
.	.	.	8bb/	.	.	.	.	.	.	.
.	.	.	8gg/J	.	.	.	.	.	.	.
4.c~/	16rE	4GG\	8.ff#/L	4g\ 4cc	.	.	.	.	.	.
.	(>16E/LL	.	.	.	.	.	.	.	.	.
.	16F#/	.	.	.	.	.	.	.	.	.
.	16G/	.	16ee/K	.	.	.	.	.	.	.
.	16G#X/	8C\	(8dd/J	(>16e#X\LL	.	.	.	.	.	.
.	16A/JJ)	.	.	16f#\JJ)	.	.	.	.	.	.
*	*v	*v	*	*	*	*	*	*	*	*
!!LO:LB:g=original	!	!	!	!	!	!	!	!	!
=62	=62	=62	=62	=62	=62	=62	=62	=62	=62
4d~/	4BB\ 4G	8dd/L)	4g\ 4b	.	.	2.r	.	.	.
.	.	8gg/	.	.	.	.	.	.	.
[8BB\ [8Fn [8G#X [8d	2ryy	[8gg#X/J [8bb	[8dd\	.	.	.	.	.	.
8BB\] 8F] 8G#] 8d]	.	4ddd/	8dd\L] 8gg#] 8bb]	.	.	.	.	.	.
4C:\ 4E: 4F: 4A#X: 4d:	.	.	8dd\ 8ee 8ff# 8aa#X	.	.	.	.	.	.
.	.	[8ddd/	(8dd\J	.	.	.	.	.	.
*v	*v	*	*	*	*	*	*	*	*
*	*v	*v	*	*	*	*	*	*
=63	=63	=63	=63	=63	=63	=63	=63
!	!LO:TX:b:i:t=a la cornemuse	!	!	!	!	!	!
2.GG:\ 2.D: 2.B:	16dd\LL) 16gg 16bb 16ddd]	.	.	2.r	.	.	.
*	*8va	*	*	*	*	*	*
.	16ddd'\	.	.	.	.	.	.
.	16ggg'\	.	.	.	.	.	.
.	16bbb\	.	.	.	.	.	.
.	16cccc#X'\	.	.	.	.	.	.
.	16eeee'\JJ	.	.	.	.	.	.
.	[4.ddddTT\	.	.	.	.	.	.
=64	=64	=64	=64	=64	=64	=64	=64
*ped	*	*	*	*	*	*	*
4.GGG/ 4.DD	2.ddddttt\_	.	.	2.r	.	.	.
!	!LO:TX:b:i:t=poco	!	!	!	!	!	!
4.GG/ 4.D	.	.	.	.	.	.	.
=65	=65	=65	=65	=65	=65	=65	=65
!	!	!	!LO:HP:b:t=dim.	!LO:N:vis=1	!	!	!
4.G\ 4.d	2.ddddttt\]	.	>	2.r	.	.	.
*clefG2	*	*	*	*	*	*	*
4.g\ 4.dd	.	.	.	.	.	.	.
=66	=66	=66	=66	=66	=66	=66	=66
*	*tuplet	*	*	*	*	*	*
!	!LO:TUP:a:problem:klamra łukowa i cyfra	!	!	!	!	!	!
.	32qqbbb/LLL	.	>	.	.	.	.
.	32qqdddd/	.	.	.	.	.	.
.	32qqgggg/	.	.	.	.	.	.
.	32qqeeee/	.	.	.	.	.	.
.	(32qqggg/JJJ	.	.	.	.	.	.
!	!	!	!	!LO:N:vis=1	!	!	!
2.gg\ 2.ddd	[2.ggg\) [2.dddd	.	.	2.r	.	.	.
*clefF4	*	*	*	*	*	*	*
=67	=67	=67	=67	=67	=67	=67	=67
2.GG/ 2.D	2.ggg\] 2.dddd]	.	] pp	2.r	.	.	.
*	*X8va	*	*	*	*	*	*
==	==	==	==	==	==	==	==
*-	*-	*-	*-	*-	*-	*-	*-
!!!system-decoration: s1{(s2,s3)}
!!!RDF**kern: > = above
!!!RDF**kern: < = below
!!!RDF**kern: N = linked
!!!RDF**kern: NN = linked
!!!RDF**kern: Z = editorial accidental, parentheses
!!!ENC: Marta Opryszak
!!!END: 2022-07-25
!!!ENC: Jan Barakat
!!!END: 2022-09-12
!!!YEC: Copyright 2022 Narodowy Instytut Fryderyka Chopina (https://polishscores.org)
!!!YEM: License CC-BY-4.0 (https://creativecommons.org/licenses/by/4.0)
